images/Vector.svg

<svg width="16" height="20" viewBox="0 0 16 20" fill="none" xmlns="http://www.w3.org/2000/svg">
<path d="M7.99998 11.9999C10.206 11.9999 11.9999 10.2059 11.9999 7.99993C11.9999 5.79395 10.206 3.99997 7.99998 3.99997C5.79401 3.99997 4.00003 5.79395 4.00003 7.99993C4.00003 10.2059 5.79401 11.9999 7.99998 11.9999ZM7.99998 5.99995C9.10297 5.99995 9.99996 6.89694 9.99996 7.99993C9.99996 9.10291 9.10297 9.9999 7.99998 9.9999C6.897 9.9999 6.00001 9.10291 6.00001 7.99993C6.00001 6.89694 6.897 5.99995 7.99998 5.99995Z" fill="#26303B"/>
<path d="M7.42001 19.8138C7.58925 19.9347 7.79203 19.9996 8 19.9996C8.20797 19.9996 8.41075 19.9347 8.57999 19.8138C8.88399 19.5988 16.0289 14.4398 15.9999 7.99991C15.9999 3.58896 12.411 0 8 0C3.58905 0 8.80368e-05 3.58896 8.80368e-05 7.99491C-0.0289116 14.4398 7.11601 19.5988 7.42001 19.8138ZM8 1.99998C11.309 1.99998 13.9999 4.69095 13.9999 8.00491C14.0209 12.4429 9.61198 16.4278 8 17.7348C6.38902 16.4268 1.97907 12.4409 2.00007 7.99991C2.00007 4.69095 4.69104 1.99998 8 1.99998Z" fill="#26303B"/>
</svg>

<svg width="16" height="20" fill="none" xmlns="http://www.w3.org/2000/svg"><path d="M8 12c2.206 0 4-1.794 4-4s-1.794-4-4-4-4 1.794-4 4 1.794 4 4 4Zm0-6c1.103 0 2 .897 2 2s-.897 2-2 2-2-.897-2-2 .897-2 2-2Z" fill="#26303B"/><path d="M7.42 19.814a.998.998 0 0 0 1.16 0C8.884 19.599 16.029 14.44 16 8c0-4.411-3.589-8-8-8-4.41 0-8 3.589-8 7.995-.029 6.445 7.116 11.604 7.42 11.819ZM8 2c3.309 0 6 2.691 6 6.005.02 4.438-4.388 8.423-6 9.73C6.389 16.427 1.98 12.44 2 8 2 4.69 4.691 2 8 2Z" fill="#26303B"/></svg>
